packages/components/src/telekom/icons/weather/cloudy-rain/selected.svg

<?xml version="1.0" encoding="UTF-8"?>
<svg width="24px" height="24px" viewBox="0 0 24 24" version="1.1" xmlns="http://www.w3.org/2000/svg" xmlns:xlink="http://www.w3.org/1999/xlink">
    <title>icon/weather/cloudy-rain/selected</title>
    <g id="icon/weather/cloudy-rain/selected" stroke="none" stroke-width="1" fill="none" fill-rule="evenodd">
        <path d="M9.36565,18.19545 C9.4518375,18.1167 9.58281406,18.1711688 9.60047812,18.2744461 L9.60065,18.32145 L9.12115,21.38445 C9.01665,22.05345 8.38915,22.51145 7.71915,22.40695 C6.74548333,22.254575 6.35500243,21.0882833 6.99129583,20.3796624 L7.08015,20.28995 L9.36565,18.19545 Z M8.11565,14.03595 C8.2018375,13.9572 8.33281406,14.0116688 8.35047813,14.1149461 L8.35065,14.16195 L7.82115,17.54845 C7.70665,18.28045 7.02015,18.78095 6.28765,18.66645 C5.21938077,18.4991423 4.79229127,17.2158953 5.49844099,16.4417942 L5.58865,16.35145 L8.11565,14.03595 Z M13.04965,12.73145 C13.1358375,12.6527 13.2668141,12.7071688 13.2844781,12.8104461 L13.28465,12.85745 L12.66915,16.79345 C12.53765,17.63145 11.75165,18.20495 10.91315,18.07345 C9.68657857,17.8815571 9.19877054,16.4041509 10.0168495,15.5187915 L10.11315,15.42295 L13.04965,12.73145 Z M10.51115,5.94995 C12.86515,5.94995 14.93865,7.41695 15.74415,9.62395 C17.12515,10.35145 18.00515,11.79845 18.00515,13.37695 C18.00515,15.6421621 16.2298405,17.4978683 14.0063726,17.6082552 L13.77515,17.61345 C13.8278167,17.4821167 13.8742611,17.3476722 13.9094463,17.2078944 L13.95315,16.99395 L14.56915,13.05845 C14.63365,12.63945 14.51365,12.21745 14.24015,11.89845 C13.96515,11.57795 13.56565,11.39395 13.14415,11.39395 C12.8347214,11.39395 12.5363133,11.4931337 12.2892287,11.6757576 L12.17015,11.77395 L9.65165,14.08245 C9.63915,13.76195 9.51965,13.45245 9.30765,13.20445 C9.03265,12.88295 8.63265,12.69845 8.21015,12.69845 C7.90157857,12.69845 7.60402755,12.7972663 7.35717041,12.9791555 L7.23815,13.07695 L4.71015,15.39295 C4.10365,15.94895 3.80665,16.72945 3.86415,17.52295 C2.12065,17.15745 0.80515,15.60745 0.80515,13.74595 C0.80515,12.34645 1.56015,11.06245 2.75715,10.38045 C2.85915,8.55845 4.36465,7.10745 6.20015,7.10745 C6.47065,7.10745 6.73965,7.14045 7.00565,7.20545 C7.99865,6.39345 9.23215,5.94995 10.51115,5.94995 Z M19.74715,10.54645 C19.95515,10.33845 20.278508,10.3153389 20.5121431,10.4771167 L20.59515,10.54645 L21.44465,11.39495 C21.67915,11.62895 21.67915,12.00945 21.44465,12.24345 C21.32715,12.36095 21.17365,12.41945 21.02015,12.41945 C20.89735,12.41945 20.77455,12.38169 20.670182,12.306682 L20.59565,12.24345 L19.74715,11.39545 C19.51265,11.16095 19.51265,10.78045 19.74715,10.54645 Z M16.60065,4.39995 C18.25515,4.39995 19.60065,5.74545 19.60065,7.39995 C19.60065,8.53195 18.97015,9.51845 18.04265,10.02945 C17.66865,9.54945 17.22015,9.12545 16.69865,8.79045 C16.13315,7.52745 15.20815,6.49545 14.07115,5.79395 C14.60365,4.95745 15.53715,4.39995 16.60065,4.39995 Z M22.85065,6.79995 C23.18165,6.79995 23.45065,7.06845 23.45065,7.39995 C23.45065,7.6983 23.23276,7.94562 22.947883,7.9921005 L22.85065,7.99995 L21.65065,7.99995 C21.31915,7.99995 21.05065,7.73145 21.05065,7.39995 C21.05065,7.1016 21.268135,6.85428 21.5532955,6.8077995 L21.65065,6.79995 L22.85065,6.79995 Z M11.75715,2.55645 C11.9655944,2.34845 12.2886068,2.32533889 12.5225108,2.48711667 L12.60565,2.55645 L13.45465,3.40495 C13.68915,3.63945 13.68915,4.01945 13.45465,4.25345 C13.33715,4.37095 13.18365,4.42945 13.03015,4.42945 C12.90735,4.42945 12.78455,4.39169 12.680182,4.316682 L12.60565,4.25345 L11.75715,3.40495 C11.52315,3.17095 11.52315,2.79045 11.75715,2.55645 Z M20.59615,2.55645 C20.83065,2.32245 21.21015,2.32195 21.44465,2.55645 C21.6530944,2.76489444 21.6762549,3.08830185 21.5141315,3.32194246 L21.44465,3.40495 L20.59565,4.25345 C20.47865,4.37095 20.32515,4.42945 20.17115,4.42945 C20.01765,4.42945 19.86415,4.37045 19.74715,4.25345 C19.53915,4.04545 19.5160389,3.72209198 19.6778167,3.48810569 L19.74715,3.40495 L20.59615,2.55645 Z M16.60065,0.54995 C16.89855,0.54995 17.14623,0.767435 17.192787,1.0525955 L17.20065,1.14995 L17.20065,2.34995 C17.20065,2.68145 16.93165,2.94995 16.60065,2.94995 C16.3023,2.94995 16.05498,2.732465 16.0084995,2.4473045 L16.00065,2.34995 L16.00065,1.14995 C16.00065,0.81845 16.26915,0.54995 16.60065,0.54995 Z" id="Shape" fill="#262626"></path>
    </g>
</svg>

<svg width="24" height="24" xmlns="http://www.w3.org/2000/svg"><path d="M9.366 18.195a.142.142 0 01.234.08v.046l-.479 3.063a1.227 1.227 0 01-1.402 1.023c-.974-.152-1.364-1.319-.728-2.027l.09-.09 2.285-2.095zm-1.25-4.16a.142.142 0 01.234.08v.047l-.529 3.386a1.342 1.342 0 01-1.533 1.118c-1.069-.167-1.496-1.45-.79-2.224l.09-.09 2.528-2.316zm4.934-1.304a.142.142 0 01.234.08v.046l-.615 3.936a1.537 1.537 0 01-1.756 1.28c-1.226-.191-1.714-1.669-.896-2.554l.096-.096 2.937-2.692zM10.51 5.95a5.56 5.56 0 015.233 3.674 4.25 4.25 0 012.261 3.753c0 2.265-1.775 4.12-3.999 4.231l-.23.005c.052-.13.098-.265.133-.405l.044-.214.616-3.936a1.441 1.441 0 00-2.28-1.382l-.119.098-2.518 2.308a1.443 1.443 0 00-2.294-1.103l-.12.098-2.528 2.316a2.616 2.616 0 00-.846 2.13 3.86 3.86 0 01-3.059-3.777c0-1.4.755-2.684 1.952-3.366C2.86 8.558 4.365 7.107 6.2 7.107c.27 0 .54.033.806.098A5.53 5.53 0 0110.51 5.95zm9.236 4.596a.6.6 0 01.765-.069l.083.07.85.848a.6.6 0 01-.775.912l-.074-.064-.849-.848a.6.6 0 010-.849zM16.601 4.4c1.654 0 3 1.345 3 3 0 1.132-.63 2.118-1.558 2.63a5.43 5.43 0 00-1.344-1.24 6.768 6.768 0 00-2.628-2.996 2.997 2.997 0 012.53-1.394zm6.25 2.4a.6.6 0 01.097 1.192L22.85 8h-1.2a.6.6 0 01-.098-1.192l.098-.008h1.2zM11.757 2.556a.6.6 0 01.766-.069l.083.07.849.848a.6.6 0 01-.775.912l-.074-.064-.849-.848a.6.6 0 010-.849zm8.84 0a.6.6 0 01.917.766l-.07.083-.848.848a.596.596 0 01-.849 0 .6.6 0 01-.07-.765l.07-.083.85-.849zM16.6.55a.6.6 0 01.592.503l.008.097v1.2a.6.6 0 01-1.193.097l-.007-.097v-1.2a.6.6 0 01.6-.6z" fill="#000" fill-rule="evenodd"/></svg>
